icons/src/checkmark.svg

<?xml version="1.0" encoding="UTF-8"?>
<!--Generator: Apple Native CoreSVG 341-->
<!DOCTYPE svg
PUBLIC "-//W3C//DTD SVG 1.1//EN"
       "http://www.w3.org/Graphics/SVG/1.1/DTD/svg11.dtd">
<svg version="1.1" xmlns="http://www.w3.org/2000/svg" xmlns:xlink="http://www.w3.org/1999/xlink" viewBox="0 0 17.1875 17.2363">
 <g>
  <rect height="17.2363" opacity="0" width="17.1875" x="0" y="0"/>
  <path d="M6.36719 17.2363C6.78711 17.2363 7.11914 17.0508 7.35352 16.6895L16.582 2.1582C16.7578 1.875 16.8262 1.66016 16.8262 1.43555C16.8262 0.898438 16.4746 0.546875 15.9375 0.546875C15.5469 0.546875 15.332 0.673828 15.0977 1.04492L6.32812 15.0195L1.77734 9.0625C1.5332 8.7207 1.28906 8.58398 0.9375 8.58398C0.380859 8.58398 0 8.96484 0 9.50195C0 9.72656 0.0976562 9.98047 0.283203 10.2148L5.35156 16.6699C5.64453 17.0508 5.94727 17.2363 6.36719 17.2363Z" fill="black" fill-opacity="0.85"/>
 </g>
</svg>

<!--Generator: Apple Native CoreSVG 341-->
<!DOCTYPE svg  PUBLIC '-//W3C//DTD SVG 1.1//EN'  'http://www.w3.org/Graphics/SVG/1.1/DTD/svg11.dtd'>
<svg version="1.1" viewBox="0 0 17.188 17.236" xmlns="http://www.w3.org/2000/svg">
 <rect width="17.188" height="17.236" opacity="0"/>
 <path d="m6.3672 17.236c0.41992 0 0.75195-0.1855 0.98633-0.5468l9.2285-14.531c0.1758-0.2832 0.2442-0.49804 0.2442-0.72265 0-0.53711-0.3516-0.88868-0.8887-0.88868-0.3906 0-0.6055 0.12695-0.8398 0.49804l-8.7696 13.975-4.5508-5.957c-0.24414-0.3418-0.48828-0.47852-0.83984-0.47852-0.55664 0-0.9375 0.38086-0.9375 0.91797 0 0.22461 0.097656 0.47852 0.2832 0.71285l5.0684 6.4551c0.29297 0.3809 0.59571 0.5664 1.0156 0.5664z" fill-opacity=".85"/>
</svg>
